X:1
T:Title
%%score { ( 1 3 4 ) | ( 2 5 ) }
L:1/8
M:4/4
K:G
V:1 treble nm="Grand Piano"
V:3 treble 
V:4 treble 
V:2 bass 
V:5 bass 
V:1
 z4 z2[Q:1/4=100] D2 | B4 z4 | B4 z4 | B2 G2 c2 G2 | B6 z2 | [CFA]3 [=F^G] [C^FA]2 [DFB]2 | %6
 [B,EG]3 [FA] [EGB]2 [B,EG]2 | [B,DF]2 [DFB]2 [^CFB]2 [EF_B]2 | [DFB]6 [FB]2 | %9
 [CFA]3 [FA] [DFB]2 [CFA]2 | [B,DG]3 [FA] [DGB]2 [DGB]2 | [DGB]2 [^DAB]2 [EGB]2 [EG^c]2 | d6 z2 | %13
 [=FBd]3 [FB] [CFA]2 [B,FG]2 | [EGd]3 [Gc] [EGc]2 B2 | [A,^CA]2 [CE]2 [=C^D]2 [^CE]2 | %16
[M:7/8] F2 z z z z2 |[M:1/4] D2 |[M:4/4] d2- [Bd-]2 [Ad-]2 [Gd-]2 | [Gd-]3 [Fd-] [Fd]2 D2 | %20
 [Ec]2 z2 z4 |[M:3/4] z6 |[M:1/4] G2 |[M:4/4] [EGc]2 [DGB]2 [EGe]2 [DGd]2 | %24
[M:9/8] [EGd]3 [EG^c] [^DF=c]2- [DFc] [=D=FB]2 |[M:4/4] [CEc]2 [CE]2 [FB]3 [CFA] | %26
[M:3/4] [B,DG]6 |] %27
V:2
 z8 | G,,2 [D,G,]2 [^D,G,C]2 [D,G,C]2 | G,,2 [D,G,]2 [^D,G,C]2 [D,G,C]2 | %3
 G,,2 [D,G,B,]2 G,,2 [E,G,C]2 | G,,2 [D,G,]2 [D,G,]2 [D,G,B,]2 | z2 D,2 z4 | z2 E,2 z4 | %7
 F,,2 F,2 F,2 F,2 | B,,2 F,2 B,2 D2 | D,,2 z C D,2 D,2 | G,,2 z D G,2 [G,,G,]2 | %11
 [G,,G,]2 [F,,F,]2 [E,,E,]2 [A,,A,]2 | [D,D]2 [C,C]2 [B,,B,]2 [A,,A,]2 | z2 G,2 z4 | %14
 C,2 z E C2 B,2 | z2 E,2 ^D,2 E,2 |[M:7/8] z2 G,2 F,3 |[M:1/4] D,2 | %18
[M:4/4] G,2 [G,D]2 [G,C]2 [G,B,]2 | [A,C]3 [A,C] [A,C]2 D,2 | D,2 D,2 D,2 D,2 |[M:3/4] z2 z2 B,2 | %22
[M:1/4] G,2 |[M:4/4] [E,G,C]2 [D,G,B,]2 [C,C]2 [B,,B,]2 | %24
[M:9/8] [_B,,_B,]3 [B,,B,] [A,,A,]2- [A,,A,] [G,,^G,]2 |[M:4/4] [A,,A,]2 [A,,A,]2 [D,D]3 D, | %26
[M:3/4] G,,6 |] %27
V:3
 x8 | z2 z B G2 A2 | z2 z B G2 A2 | x8 | z2 B,2 B,2 B2 | x8 | x8 | x8 | x8 | x8 | x8 | x8 | %12
 F2 [DF]2 [DG]2 [Fcd]2 | x8 | x8 | x8 |[M:7/8] [CA]2- [C-EA-]2 [CDA]3 |[M:1/4] x2 | %18
[M:4/4] [DB]2 z2 z4 | x8 | d2- [Ecd-]2 [DBd-]2 [CAd-]2 |[M:3/4] [CAd-]4 [Gd]2 |[M:1/4] x2 | %23
[M:4/4] x8 |[M:9/8] x9 |[M:4/4] x8 |[M:3/4] x6 |] %27
V:4
 x8 | z2 B,2 z4 | z2 B,2 z4 | x8 | x8 | x8 | x8 | x8 | x8 | x8 | x8 | x8 | x8 | x8 | x8 | x8 | %16
[M:7/8] x7 |[M:1/4] x2 |[M:4/4] x8 | x8 | x8 |[M:3/4] x6 |[M:1/4] x2 |[M:4/4] x8 |[M:9/8] x9 | %25
[M:4/4] x8 |[M:3/4] x6 |] %27
V:5
 x8 | x8 | x8 | x8 | x8 | D,,2 z B, D,2 D,2 | E,,2 z B, E,2 E,2 | x8 | x8 | z2 D,2 z4 | z2 D,2 z4 | %11
 x8 | x8 | G,,2 z D G,2 G,2 | z2 G,2 z4 | A,,8 |[M:7/8] D,-D,-D,- D,- D,3 |[M:1/4] x2 |[M:4/4] x8 | %19
 x8 | x8 |[M:3/4] G,6 |[M:1/4] x2 |[M:4/4] x8 |[M:9/8] x9 |[M:4/4] x8 |[M:3/4] x6 |] %27

